gr/document-zip.svg

<svg xmlns="http://www.w3.org/2000/svg" viewBox="0 0 24 24" height="1em" width="1em">
  <path fill="none" stroke="#000" stroke-width="2" d="M4.99787498,8.99999999 L4.99787498,0.999999992 L19.4999998,0.999999992 L22.9999998,4.50000005 L23,23 L4,23 M18,1 L18,6 L23,6 M2,13 L7,13 L7,14 L3,18 L3,19 L8,19 M11,12 L11,20 L11,12 Z M15,13 L15,20 L15,13 Z M20,15 C20,13.895 19.105,13 18,13 L15,13 L15,17 L18,17 C19.105,17 20,16.105 20,15 Z"/>
</svg>

<svg xmlns="http://www.w3.org/2000/svg" viewBox="0 0 24 24" height="1em" width="1em">
  <path fill="none" stroke="#000" stroke-width="2" d="M4.998 9V1H19.5L23 4.5V23H4M18 1v5h5M2 13h5v1l-4 4v1h5m3-7v8-8Zm4 1v7-7Zm5 2a2 2 0 0 0-2-2h-3v4h3a2 2 0 0 0 2-2Z"/>
</svg>
